mobile/24/svg/warning-fill-24.svg

<svg width="24" height="24" fill="none" xmlns="http://www.w3.org/2000/svg"><path fill-rule="evenodd" clip-rule="evenodd" d="M11.956 3.336c-.867 0-1.733.437-2.212 1.309L2.815 17.262C1.892 18.944 3.108 21 5.027 21h13.946c1.925 0 3.141-2.068 2.205-3.75L14.162 4.633a2.5 2.5 0 0 0-2.206-1.297zM11.125 13.5V9h1.75v4.5h-1.75zm0 1.75h1.75V17h-1.75v-1.75z" fill="#000"/></svg>

<svg width="24" height="24" viewBox="0 0 24 24" fill="none" xmlns="http://www.w3.org/2000/svg">
<path fill-rule="evenodd" clip-rule="evenodd" d="M11.956 3.336C11.089 3.336 10.223 3.773 9.74398 4.645L2.81498 17.262C1.89198 18.944 3.10798 21 5.02698 21H18.973C20.898 21 22.114 18.932 21.178 17.25L14.162 4.633C13.681 3.768 12.818 3.336 11.956 3.336ZM11.125 13.5V9H12.875V13.5H11.125ZM11.125 15.25H12.875V17H11.125V15.25Z" fill="black"/>
</svg>
